X:136
T:Trip to Inchcomb,A. RH.136
R:reel
S:Rev.R.Harrison’s MS,c1815,Cumbria
N:To make the repeats work, I halved the last note,
N:and added the leading rest. PJH.
O:England
A:Temple Sowerby,Cumbria
Z:vmp.Simon Wilson. Review PJH, 2008.
M:C
L:1/8
Q:1/2=70
K:G
z|B/c/d dd c>de2|B/c/d BG F>AA2|\
B/c/d dd c/d/e/f/g2|fadf g2G:|!
g|g>abg a<fd2|e>fge dBG2|\
c>dec Bdge|edcB [G2B2][F2A2]|!
g>abg a>fd2|e>fge dBGB|\
c>dec Bdge|dB {d}cB/A/ G2G|]

